dist/img/svg/in.svg

<svg width="12" height="12" viewBox="0 0 12 12" fill="none" xmlns="http://www.w3.org/2000/svg">
<g clip-path="url(#clip0)">
<path fill-rule="evenodd" clip-rule="evenodd" d="M11.9882 3.52803C11.9601 2.89043 11.857 2.45208 11.7093 2.07224C11.5569 1.66906 11.3225 1.30809 11.0154 1.00801C10.7153 0.703262 10.3519 0.466461 9.95343 0.316468C9.5714 0.168765 9.13534 0.0656561 8.49773 0.0375439C7.85537 0.00705093 7.65144 0 6.02222 0C4.393 0 4.18907 0.00705093 3.54908 0.0351631C2.91148 0.0632753 2.47313 0.166475 2.09339 0.314087C1.69011 0.466461 1.32914 0.700881 1.02906 1.00801C0.724318 1.30809 0.487609 1.67144 0.337525 2.06995C0.189821 2.45208 0.0867131 2.88805 0.058601 3.52565C0.028108 4.16802 0.0210571 4.37195 0.0210571 6.00117C0.0210571 7.6304 0.028108 7.83432 0.0562202 8.47431C0.0843323 9.11192 0.187532 9.55027 0.335235 9.9301C0.487609 10.3333 0.724318 10.6943 1.02906 10.9943C1.32914 11.2991 1.69249 11.5359 2.09101 11.6859C2.47313 11.8336 2.9091 11.9367 3.54679 11.9648C4.18669 11.993 4.39071 12 6.01993 12C7.64915 12 7.85308 11.993 8.49306 11.9648C9.13067 11.9367 9.56902 11.8336 9.94876 11.6859C10.7552 11.3741 11.3928 10.7365 11.7046 9.9301C11.8522 9.54798 11.9554 9.11192 11.9835 8.47431C12.0117 7.83432 12.0187 7.6304 12.0187 6.00117C12.0187 4.37195 12.0163 4.16802 11.9882 3.52803ZM6.02221 2.91852C4.32037 2.91852 2.93958 4.29922 2.93958 6.00115C2.93958 7.70308 4.32037 9.08379 6.02221 9.08379C7.72414 9.08379 9.10484 7.70308 9.10484 6.00115C9.10484 4.29922 7.72414 2.91852 6.02221 2.91852ZM6.02221 8.00078C4.91814 8.00078 4.02258 7.10531 4.02258 6.00115C4.02258 4.89699 4.91814 4.00152 6.02221 4.00152C7.12637 4.00152 8.02184 4.89699 8.02184 6.00115C8.02184 7.10531 7.12637 8.00078 6.02221 8.00078ZM9.22674 3.51628C9.62425 3.51628 9.94649 3.19404 9.94649 2.79662C9.94649 2.39911 9.62425 2.07697 9.22674 2.07697C8.82932 2.07697 8.50708 2.39911 8.50708 2.79662C8.50708 3.19404 8.82932 3.51628 9.22674 3.51628Z" fill="white"/>
</g>
<defs>
<clipPath id="clip0">
<rect width="12" height="12" fill="white"/>
</clipPath>
</defs>
</svg>

<svg width="12" height="12" viewBox="0 0 12 12" fill="none" xmlns="http://www.w3.org/2000/svg"><g clip-path="url(#clip0)"><path fill-rule="evenodd" clip-rule="evenodd" d="M11.988 3.528c-.028-.638-.131-1.076-.279-1.456a2.93 2.93 0 00-.694-1.064A2.954 2.954 0 009.953.316C9.571.17 9.135.066 8.498.038 7.855.008 7.65 0 6.022 0S4.19.007 3.55.035c-.638.028-1.076.131-1.456.28a2.928 2.928 0 00-1.064.693c-.305.3-.541.663-.691 1.062-.148.382-.251.818-.28 1.456C.029 4.168.022 4.372.022 6c0 1.63.007 1.833.035 2.473.028.638.132 1.076.28 1.456.152.403.388.764.693 1.064.3.305.663.542 1.062.692.382.148.818.25 1.456.279.64.028.844.035 2.473.035 1.63 0 1.833-.007 2.473-.035.638-.028 1.076-.131 1.456-.28a3.07 3.07 0 001.756-1.755c.147-.382.25-.818.278-1.456.029-.64.036-.844.036-2.473 0-1.63-.003-1.833-.03-2.473zm-5.966-.61a3.083 3.083 0 10.002 6.167 3.083 3.083 0 00-.002-6.166zm0 5.083a2 2 0 110-4 2 2 0 010 4zm3.205-4.485a.72.72 0 100-1.44.72.72 0 000 1.44z" fill="#fff"/></g><defs><clipPath id="clip0"><path fill="#fff" d="M0 0h12v12H0z"/></clipPath></defs></svg>
